icons/folder-5-line.svg

<svg xmlns="http://www.w3.org/2000/svg" width="24" height="24" fill="none"><g clip-path="url(#a)"><g><path fill="#121212" d="M3.087 9H20.913C21.0514 8.99994 21.1882 9.02859 21.3149 9.08413C21.4416 9.13968 21.5555 9.22092 21.6492 9.32271C21.7429 9.4245 21.8144 9.54463 21.8593 9.67549C21.9042 9.80636 21.9215 9.94512 21.91 10.083L21.076 20.083C21.0552 20.3329 20.9413 20.5658 20.7568 20.7357C20.5723 20.9055 20.3308 20.9999 20.08 21H3.92C3.66925 20.9999 3.42769 20.9055 3.24322 20.7357C3.05874 20.5658 2.94481 20.3329 2.924 20.083L2.09 10.083C2.07851 9.94512 2.09577 9.80636 2.14066 9.67549C2.18556 9.54463 2.25713 9.4245 2.35083 9.32271C2.44454 9.22092 2.55835 9.13968 2.68507 9.08413C2.81178 9.02859 2.94864 8.99994 3.087 9ZM4.84 19H19.16L19.826 11H4.174L4.84 19ZM13.414 5H20C20.2652 5 20.5196 5.10536 20.7071 5.29289C20.8946 5.48043 21 5.73478 21 6V7H3V4C3 3.73478 3.10536 3.48043 3.29289 3.29289C3.48043 3.10536 3.73478 3 4 3H11.414L13.414 5Z"/></g></g><defs><clipPath id="a"><rect width="24" height="24" fill="white"/></clipPath></defs></svg>

<svg width="24" height="24" fill="none" xmlns="http://www.w3.org/2000/svg"><g clip-path="url(#a)"><path d="M3.087 9h17.826a1 1 0 0 1 .997 1.083l-.834 10a1 1 0 0 1-.996.917H3.92a1 1 0 0 1-.996-.917l-.834-10A1 1 0 0 1 3.087 9ZM4.84 19h14.32l.666-8H4.174l.666 8Zm8.574-14H20a1 1 0 0 1 1 1v1H3V4a1 1 0 0 1 1-1h7.414l2 2Z" /></g><defs><clipPath id="a"><path fill="#fff" d="M0 0h24v24H0z"/></clipPath></defs></svg>
